common/src/main/resources/icons/general/new_badge.svg

<svg xmlns="http://www.w3.org/2000/svg" width="16" height="16" viewBox="0 0 24 24"><path fill="#FFD54F" d="M20 4c1.11 0 2 .89 2 2v12c0 1.11-.89 2-2 2H4c-1.11 0-2-.89-2-2V6c0-1.11.89-2 2-2zM8.5 15V9H7.25v3.5L4.75 9H3.5v6h1.25v-3.5L7.3 15zm5-4.74V9h-4v6h4v-1.25H11v-1.11h2.5v-1.26H11v-1.12zm7 3.74V9h-1.25v4.5h-1.12V10h-1.25v3.5h-1.13V9H14.5v5a1 1 0 0 0 1 1h4a1 1 0 0 0 1-1" data-tint="true"/></svg>

<!--
  - The MIT License (MIT)
  -
  - Copyright (c) 2015-2024 Elior "Mallowigi" Boukhobza
  -
  - Permission is hereby granted, free of charge, to any person obtaining a copy
  - of this software and associated documentation files (the "Software"), to deal
  - in the Software without restriction, including without limitation the rights
  - to use, copy, modify, merge, publish, distribute, sublicense, and/or sell
  - copies of the Software, and to permit persons to whom the Software is
  - furnished to do so, subject to the following conditions:
  -
  - The above copyright notice and this permission notice shall be included in all
  - copies or substantial portions of the Software.
  -
  - THE SOFTWARE IS PROVIDED "AS IS", WITHOUT WARRANTY OF ANY KIND, EXPRESS OR
  - IMPLIED, INCLUDING BUT NOT LIMITED TO THE WARRANTIES OF MERCHANTABILITY,
  - FITNESS FOR A PARTICULAR PURPOSE AND NONINFRINGEMENT. IN NO EVENT SHALL THE
  - AUTHORS OR COPYRIGHT HOLDERS BE LIABLE FOR ANY CLAIM, DAMAGES OR OTHER
  - LIABILITY, WHETHER IN AN ACTION OF CONTRACT, TORT OR OTHERWISE, ARISING FROM,
  - OUT OF OR IN CONNECTION WITH THE SOFTWARE OR THE USE OR OTHER DEALINGS IN THE
  - SOFTWARE.
  -->


<svg xmlns="http://www.w3.org/2000/svg" version="1.1" width="16px" height="16px" viewBox="0 0 24 24">
  <path fill="#FFD54F" data-tint="true"
        d="M20,4C21.11,4 22,4.89 22,6V18C22,19.11 21.11,20 20,20H4C2.89,20 2,19.11 2,18V6C2,4.89 2.89,4 4,4H20M8.5,15V9H7.25V12.5L4.75,9H3.5V15H4.75V11.5L7.3,15H8.5M13.5,10.26V9H9.5V15H13.5V13.75H11V12.64H13.5V11.38H11V10.26H13.5M20.5,14V9H19.25V13.5H18.13V10H16.88V13.5H15.75V9H14.5V14A1,1 0 0,0 15.5,15H19.5A1,1 0 0,0 20.5,14Z"/>
</svg>
